ui/StatusQ/src/assets/img/icons/tiny/channel-white.svg

<svg fill="none" height="17" viewBox="0 0 16 17" width="16" xmlns="http://www.w3.org/2000/svg"><path clip-rule="evenodd" d="m6.61568 2.47557c-.40782-.0725-.79719.19933-.86969.60715l-.32807 1.84548c-.05515.31023-.32487.53623-.63997.53623h-1.69725c-.41421 0-.75.33579-.75.75s.33579.75.75.75h1.1995c.4045 0 .71076.36551.63996.76376l-.29635 1.66706c-.05515.31024-.32487.53624-.63997.53624h-1.63474c-.41422 0-.75.33581-.75.75001s.33578.75.75.75h1.13698c.40451 0 .71077.3655.63997.7638l-.25617 1.441c-.0725.4078.19933.7972.60715.8697s.7972-.1994.8697-.6072l.34329-1.9311c.05515-.3102.32487-.5362.63996-.5362h1.975c.4045 0 .71077.3655.63997.7638l-.25617 1.441c-.0725.4078.19933.7972.60715.8697s.79717-.1994.86967-.6072l.3433-1.9311c.0552-.3102.3249-.5362.64-.5362h1.7677c.4142 0 .75-.3358.75-.75s-.3358-.75001-.75-.75001h-1.27c-.4045 0-.7107-.36551-.6399-.76377l.2963-1.66706c.0552-.31023.3249-.53623.64-.53623h1.7079c.4142 0 .75-.33579.75-.75s-.3358-.75-.75-.75h-1.2101c-.4046 0-.7108-.36551-.64-.76377l.2409-1.3554c.0725-.40782-.1993-.79719-.6071-.86969s-.7972.19933-.8697.60715l-.3281 1.84548c-.0551.31023-.32485.53623-.63995.53623h-1.975c-.4045 0-.71076-.36551-.63996-.76377l.24095-1.3554c.07249-.40782-.19934-.79719-.60716-.86969zm2.18706 7.45592c.3151 0 .58482-.226.63997-.53624l.29635-1.66705c.0708-.39826-.23546-.76377-.63997-.76377h-1.975c-.31509 0-.58481.226-.63996.53623l-.29636 1.66706c-.0708.39826.23547.76377.63997.76377z" fill="#fff" fill-rule="evenodd"/></svg>

<svg width="16" height="17" viewBox="0 0 16 17" fill="none" xmlns="http://www.w3.org/2000/svg">
<path fill-rule="evenodd" clip-rule="evenodd" d="M6.61568 2.47557C6.20786 2.40307 5.81849 2.6749 5.74599 3.08272L5.41792 4.9282C5.36277 5.23843 5.09305 5.46443 4.77795 5.46443H3.0807C2.66649 5.46443 2.3307 5.80022 2.3307 6.21443C2.3307 6.62864 2.66649 6.96443 3.0807 6.96443H4.2802C4.6847 6.96443 4.99096 7.32994 4.92016 7.72819L4.62381 9.39525C4.56866 9.70549 4.29894 9.93149 3.98384 9.93149H2.3491C1.93488 9.93149 1.5991 10.2673 1.5991 10.6815C1.5991 11.0957 1.93488 11.4315 2.3491 11.4315H3.48608C3.89059 11.4315 4.19685 11.797 4.12605 12.1953L3.86988 13.6363C3.79738 14.0441 4.06921 14.4335 4.47703 14.506C4.88485 14.5785 5.27423 14.3066 5.34673 13.8988L5.69002 11.9677C5.74517 11.6575 6.01489 11.4315 6.32998 11.4315L8.30498 11.4315C8.70948 11.4315 9.01575 11.797 8.94495 12.1953L8.68878 13.6363C8.61628 14.0441 8.88811 14.4335 9.29593 14.506C9.70375 14.5785 10.0931 14.3066 10.1656 13.8988L10.5089 11.9677C10.5641 11.6575 10.8338 11.4315 11.1489 11.4315H12.9166C13.3308 11.4315 13.6666 11.0957 13.6666 10.6815C13.6666 10.2673 13.3308 9.93149 12.9166 9.93149H11.6466C11.2421 9.93149 10.9359 9.56598 11.0067 9.16772L11.303 7.50066C11.3582 7.19043 11.6279 6.96443 11.943 6.96443H13.6509C14.0651 6.96443 14.4009 6.62864 14.4009 6.21443C14.4009 5.80022 14.0651 5.46443 13.6509 5.46443H12.4408C12.0362 5.46443 11.73 5.09892 11.8008 4.70066L12.0417 3.34526C12.1142 2.93744 11.8424 2.54807 11.4346 2.47557C11.0268 2.40307 10.6374 2.6749 10.5649 3.08272L10.2368 4.9282C10.1817 5.23843 9.91195 5.46443 9.59685 5.46443H7.62185C7.21735 5.46443 6.91109 5.09892 6.98189 4.70066L7.22284 3.34526C7.29533 2.93744 7.0235 2.54807 6.61568 2.47557ZM8.80274 9.93149C9.11784 9.93149 9.38756 9.70549 9.44271 9.39525L9.73906 7.7282C9.80986 7.32994 9.5036 6.96443 9.09909 6.96443L7.12409 6.96443C6.809 6.96443 6.53928 7.19043 6.48413 7.50066L6.18777 9.16772C6.11697 9.56598 6.42324 9.93149 6.82774 9.93149L8.80274 9.93149Z" fill="white"/>
</svg>
